X:458
T: Auswandererlied (170e), S. 373
N: T0034
O: Luxemburg
S: Singendes Volk, Esch-Alzette, 1937 posth.]
N: Heffingen, hhh Nikolaus Ewen, 10.6.1935
R: Abschieds- und Wanderlieder, Heimatlieder]
M: 3/4
L: 1/16
K: A
A2 | G2A2B6A2 | G2F2E4C2
A2 | G2A2B6A2 | G2F2E4C2
A2 | G2c2B6E2 | c6B2A2
G2 | A2F2E6cc | e2G2A4z2

@@@ Tune index: 8512
